X: 15
T: Reunion Jig
I: Reunion Jig	J-49	D	jig
C: Bruce A. Randall
M: 6/8
R: jig
K: D
D| "D"FAB AFD| FAB cde| "Bm"fBA Bde| fBA "G"BdB|
   "D"AFG AFD| FAB Ade| "Bm"fBA "G"BdB| "A"AFE "D"D2:|
|:d| "D"fga fdg| fag fdf| "Em"ega bge| geb geg|
   "D"fda baf| def "A"edf| "Em"eBA "G"Bcd| "A"AFE "D"D2 :|
%%text Roaring Jelly  J-49

